client/public/img/game/shared/emotes/leek.svg

<?xml version="1.0" encoding="UTF-8" standalone="no"?>
<!-- Created with Inkscape (http://www.inkscape.org/) -->

<svg
   width="84"
   height="84"
   viewBox="0 0 22.224999 22.225"
   version="1.1"
   id="svg5"
   xmlns="http://www.w3.org/2000/svg"
   xmlns:svg="http://www.w3.org/2000/svg">
  <defs
     id="defs2" />
  <g
     id="layer1">
    <path
       id="rect238"
       style="fill:#214119;fill-opacity:1;stroke-width:0.0860284;stroke-linecap:round;stroke-dasharray:2.06468, 0.0860284"
       d="M 14.277423,6.2751555 0.14990945,19.444865 c 0.57338482,0.977057 0.4806064,1.874883 2.62960565,2.629606 C 4.660327,17.961524 18.187806,8.9936237 14.277423,6.2751555 Z" />
    <path
       id="rect956"
       style="fill:#2d5d23;fill-opacity:1;stroke-width:0.0690769;stroke-linecap:round;stroke-dasharray:1.65784, 0.0690769"
       d="M 15.343444,7.2043562 C 10.950047,12.144772 5.5363193,16.22337 1.3067462,21.305483 c 0.4743739,0.467423 1.037631,0.46116 1.4727689,0.768988 L 16.086056,7.9469677 Z" />
    <path
       style="fill:#35732c;fill-opacity:1;stroke:none;stroke-width:0.758821;stroke-linecap:round;stroke-linejoin:round;stroke-dasharray:none;stroke-dashoffset:0;stroke-opacity:1"
       d="M 1.8930906,21.684505 14.721428,8.6698849 15.087161,8.9987942 2.7795757,22.074512 Z"
       id="path20344" />
    <path
       id="path10846"
       style="fill:none;fill-opacity:1;stroke:#142900;stroke-width:0.258576;stroke-linecap:round;stroke-dasharray:none;stroke-dashoffset:0;stroke-opacity:1"
       d="M 14.277403,6.275115 0.14987909,19.444825 c 0.41333446,1.183527 0.84304932,1.982757 2.62969671,2.629687 L 16.086116,7.9469981 15.51862,7.379502 15.343444,7.2043258 l -0.01012,0.010118 z" />
    <path
       id="rect8590"
       style="fill:#97d38e;fill-opacity:1;stroke-width:0.193932;stroke-linecap:round;stroke-dasharray:4.65436, 0.193932"
       d="M 15.094338,8.9998561 21.596831,8.2919477 C 22.08485,8.044655 21.861644,7.0609683 21.497588,7.1573498 l -6.753126,0.3462645 c -2.119871,-1.1159713 0.0091,1.4611843 0.349876,1.4962418 z" />
    <path
       id="rect10772"
       style="fill:#97d38e;fill-opacity:1;stroke-width:0.193932;stroke-linecap:round;stroke-dasharray:4.65436, 0.193932"
       d="m 21.488977,4.0011937 -6.282364,3.2031119 c -0.704802,0.4731089 -0.08205,1.2745142 0.481325,1.0322178 L 21.970302,5.0334119 C 22.07507,4.3733192 21.850463,4.0512878 21.488977,4.0011937 Z" />
    <path
       id="rect10776"
       style="fill:#97d38e;fill-opacity:1;stroke-width:0.193932;stroke-linecap:round;stroke-dasharray:4.65436, 0.193932"
       d="M 18.092124,0.66237449 14.169286,6.9395077 c -0.167193,0.2675397 -0.118558,0.6122867 0.139866,0.79324 0.258434,0.1809533 0.612155,0.1185783 0.793108,-0.1398455 L 19.025078,1.3156377 C 18.989341,0.79632115 18.677719,0.7127293 18.092124,0.66237449 Z" />
    <path
       id="rect8592"
       style="fill:#478e3d;fill-opacity:1;stroke-width:0.193932;stroke-linecap:round;stroke-dasharray:4.65436, 0.193932"
       d="m 20.813071,2.2826176 -6.53067,4.5728027 c -0.258434,0.1809634 -0.510595,0.7411546 -0.223943,0.8729161 0.287846,0.1323079 0.266357,0.1521496 0.561366,0.1076827 l 6.84649,-4.620427 C 21.539626,2.759987 21.35097,2.2735432 20.813071,2.2826176 Z" />
    <path
       id="rect10778"
       style="fill:#478e3d;fill-opacity:1;stroke-width:0.193932;stroke-linecap:round;stroke-dasharray:4.65436, 0.193932"
       d="M 15.404301,0.25802447 13.547853,6.9552608 C 13.898719,8.277053 14.438056,8.178924 14.827861,7.5807611 15.602504,6.3920582 15.95794,1.3641069 16.504429,0.55278061 16.356474,0.06718027 15.773956,-0.02434515 15.404301,0.25802447 Z" />
    <path
       id="rect10774"
       style="fill:#478e3d;fill-opacity:1;stroke-width:0.193932;stroke-linecap:round;stroke-dasharray:4.65436, 0.193932"
       d="M 19.561058,0.94487815 15.401802,4.7111763 c -1.07801,0.2355985 -1.95462,3.8832472 -0.67275,2.6765715 L 20.366419,1.750209 C 20.514004,1.167496 20.091775,0.78867115 19.561058,0.94487815 Z" />
    <path
       style="fill:#6bb462;fill-opacity:1;stroke:none;stroke-width:0.758821;stroke-linecap:round;stroke-linejoin:round;stroke-dasharray:none;stroke-dashoffset:0;stroke-opacity:1"
       d="m 13.802167,7.6294432 1.943521,-7.51939852 c -0.230055,0.0390285 -0.259799,-0.0693407 -0.341387,0.14797978 L 13.547874,6.9551831 Z"
       id="path16231" />
    <path
       style="fill:#6bb462;fill-opacity:1;stroke:none;stroke-width:0.758821;stroke-linecap:round;stroke-linejoin:round;stroke-dasharray:none;stroke-dashoffset:0;stroke-opacity:1"
       d="m 15.543613,4.5831382 c -0.138334,0.2349306 0.338662,0.2896806 0.392946,0.2188789 l 4.194334,-3.800045 c -0.460504,-0.71591015 -3.041417,2.3270458 -4.58728,3.5811661 z"
       id="path17259" />
    <path
       style="fill:#6bb462;fill-opacity:1;stroke:none;stroke-width:0.758821;stroke-linecap:round;stroke-linejoin:round;stroke-dasharray:none;stroke-dashoffset:0;stroke-opacity:1"
       d="m 17.549473,4.5678021 c -0.209758,0.1084798 0.135242,0.1494281 0.255514,0.127941 L 21.15722,2.4906176 c 0.138895,-0.771481 -2.141605,1.1103263 -3.607747,2.0771845 z"
       id="path17261" />
    <path
       style="fill:#b1f1a8;fill-opacity:1;stroke:none;stroke-width:0.758821;stroke-linecap:round;stroke-linejoin:round;stroke-dasharray:none;stroke-dashoffset:0;stroke-opacity:1"
       d="m 16.071478,6.7633472 c -0.120656,0.069468 0.06887,0.1485535 0.25469,0.2275239 L 21.851814,4.2051669 C 21.4105,3.481835 18.200261,5.8694807 16.071478,6.7633472 Z"
       id="path19441" />
    <path
       style="fill:#b1f1a8;fill-opacity:1;stroke:none;stroke-width:0.758821;stroke-linecap:round;stroke-linejoin:round;stroke-dasharray:none;stroke-dashoffset:0;stroke-opacity:1"
       d="m 17.391633,7.3678813 c -0.144108,0.028461 0.01424,0.2167091 0.05844,0.3446535 l 4.421062,-0.08415 C 22.159001,7.0209115 20.874628,7.0161414 17.391633,7.3678826 Z"
       id="path20223" />
    <path
       style="fill:#b1f1a8;fill-opacity:1;stroke:none;stroke-width:0.758821;stroke-linecap:round;stroke-linejoin:round;stroke-dasharray:none;stroke-dashoffset:0;stroke-opacity:1"
       d="M 16.010767,3.9928592 C 16.918517,2.752866 17.753954,0.5358699 18.404439,0.62124998 L 16.790403,3.4537672 Z"
       id="path20288" />
    <path
       id="path13926"
       style="fill:none;fill-opacity:1;stroke:#142900;stroke-width:0.193931;stroke-linecap:round;stroke-linejoin:round;stroke-dasharray:none;stroke-dashoffset:0;stroke-opacity:1"
       d="M 15.404261,0.25844941 13.547883,6.9555542 c -0.04897,0.4316271 0.351222,0.7757062 0.605407,1.0746511 0.0173,0.020842 0.03481,0.041381 0.05251,0.061818 0.0051,0.00607 0.01012,0.011939 0.01538,0.018212 l 1.32e-4,-1.315e-4 c 0.243783,0.2794886 0.763474,0.878815 0.873058,0.8901063 L 21.596882,8.2923625 C 22.065197,8.1221819 21.899803,7.1209514 21.497598,7.1576432 L 17.391773,7.368231 21.970353,5.0338469 C 22.322008,4.5834479 21.717235,3.9488519 21.489048,4.0016288 L 16.068643,6.7652117 21.466334,3.215926 C 21.644489,2.7170648 21.248307,2.2950201 20.813051,2.2830122 L 17.547979,4.5692971 20.36648,1.7506643 C 20.528173,1.157444 20.108342,0.82013405 19.561139,0.94532335 L 15.542923,4.5837856 19.025048,1.3159918 C 19.162301,0.87604965 18.481719,0.47483031 18.092093,0.66280955 L 15.770538,4.3776495 15.542842,4.5838361 16.50452,0.55310438 C 16.396829,0.07301952 15.726569,-0.03202914 15.404261,0.25844941 Z" />
  </g>
</svg>

<svg xmlns="http://www.w3.org/2000/svg" width="84" height="84" viewBox="0 0 22.225 22.225"><path d="M14.277 6.275.15 19.445c.573.977.48 1.875 2.63 2.63 1.88-4.113 15.408-13.081 11.497-15.8" style="fill:#214119;fill-opacity:1;stroke-width:.0860284;stroke-linecap:round;stroke-dasharray:2.06468,.0860284"/><path d="M15.343 7.204c-4.393 4.94-9.807 9.02-14.036 14.101.474.468 1.037.462 1.473.77L16.086 7.946Z" style="fill:#2d5d23;fill-opacity:1;stroke-width:.0690769;stroke-linecap:round;stroke-dasharray:1.65784,.0690769"/><path d="M1.893 21.685 14.721 8.67l.366.329L2.78 22.075Z" style="fill:#35732c;fill-opacity:1;stroke:none;stroke-width:.758821;stroke-linecap:round;stroke-linejoin:round;stroke-dasharray:none;stroke-dashoffset:0;stroke-opacity:1"/><path d="M14.277 6.275.15 19.445c.413 1.183.843 1.983 2.63 2.63L16.086 7.947l-.567-.567-.176-.176-.01.01z" style="fill:none;fill-opacity:1;stroke:#142900;stroke-width:.258576;stroke-linecap:round;stroke-dasharray:none;stroke-dashoffset:0;stroke-opacity:1"/><path d="m15.094 9 6.503-.708c.488-.247.265-1.231-.1-1.135l-6.753.347c-2.12-1.116.01 1.46.35 1.496" style="fill:#97d38e;fill-opacity:1;stroke-width:.193932;stroke-linecap:round;stroke-dasharray:4.65436,.193932"/><path d="m21.489 4.001-6.282 3.203c-.705.473-.082 1.275.48 1.033l6.283-3.204c.105-.66-.12-.982-.481-1.032" style="fill:#97d38e;fill-opacity:1;stroke-width:.193932;stroke-linecap:round;stroke-dasharray:4.65436,.193932"/><path d="M18.092.662 14.17 6.94c-.167.267-.118.612.14.793a.57.57 0 0 0 .793-.14l3.923-6.277c-.036-.52-.347-.603-.933-.654" style="fill:#97d38e;fill-opacity:1;stroke-width:.193932;stroke-linecap:round;stroke-dasharray:4.65436,.193932"/><path d="m20.813 2.283-6.53 4.572c-.259.181-.511.742-.225.873.288.133.267.152.562.108l6.846-4.62c.074-.456-.115-.942-.653-.933" style="fill:#478e3d;fill-opacity:1;stroke-width:.193932;stroke-linecap:round;stroke-dasharray:4.65436,.193932"/><path d="m15.404.258-1.856 6.697c.35 1.322.89 1.224 1.28.626.775-1.189 1.13-6.217 1.676-7.028-.148-.486-.73-.577-1.1-.295" style="fill:#478e3d;fill-opacity:1;stroke-width:.193932;stroke-linecap:round;stroke-dasharray:4.65436,.193932"/><path d="m19.561.945-4.16 3.766c-1.077.236-1.954 3.883-.672 2.677l5.637-5.638c.148-.583-.274-.961-.805-.805" style="fill:#478e3d;fill-opacity:1;stroke-width:.193932;stroke-linecap:round;stroke-dasharray:4.65436,.193932"/><path d="M13.802 7.63 15.746.11c-.23.04-.26-.07-.342.148l-1.856 6.697ZM15.544 4.583c-.139.235.338.29.393.219l4.194-3.8c-.46-.716-3.042 2.327-4.587 3.581M17.55 4.568c-.21.108.135.15.255.128l3.352-2.205c.14-.772-2.141 1.11-3.608 2.077" style="fill:#6bb462;fill-opacity:1;stroke:none;stroke-width:.758821;stroke-linecap:round;stroke-linejoin:round;stroke-dasharray:none;stroke-dashoffset:0;stroke-opacity:1"/><path d="M16.071 6.763c-.12.07.07.149.255.228l5.526-2.786c-.442-.723-3.652 1.664-5.78 2.558M17.392 7.368c-.144.028.014.217.058.345l4.421-.085c.288-.607-.996-.612-4.48-.26M16.01 3.993C16.92 2.753 17.755.536 18.405.62L16.79 3.454Z" style="fill:#b1f1a8;fill-opacity:1;stroke:none;stroke-width:.758821;stroke-linecap:round;stroke-linejoin:round;stroke-dasharray:none;stroke-dashoffset:0;stroke-opacity:1"/><path d="m15.404.258-1.856 6.698c-.05.431.351.775.605 1.074l.053.062.015.018h0c.244.28.764.879.873.89l6.503-.708c.468-.17.303-1.171-.1-1.134l-4.105.21 4.578-2.334c.352-.45-.253-1.085-.481-1.032l-5.42 2.763 5.397-3.55c.178-.498-.218-.92-.653-.932l-3.265 2.286 2.818-2.818c.162-.594-.258-.93-.805-.806l-4.018 3.639 3.482-3.268c.137-.44-.543-.841-.933-.653l-2.321 3.715-.228.206.962-4.03c-.108-.481-.778-.586-1.1-.296" style="fill:none;fill-opacity:1;stroke:#142900;stroke-width:.193931;stroke-linecap:round;stroke-linejoin:round;stroke-dasharray:none;stroke-dashoffset:0;stroke-opacity:1"/></svg>
